X: 14101
T: Friend Of My Heart
R: jig
M: 6/8
K: Gdorian
|:c|BAG FDC|DE^F G2c|dfd cdc|BAG FGA|
BAG FDC|FDE FGA|d/e/fd cAF|AGG G2:|
|:D|GBd g^fg|dec BAG|FAc fef|cdB AGF|
GBd g2a|bag fga|def gdc|BGG G2:|

